X: 4703
T: Boys Of 25, The
R: reel
M: 4/4
K: Dmajor
|=CAAF G2 AB|=CAAG Ad d2|=CAAF G2 eg|fded Ad d2|
=CAAF G2 AB|=CAAG Ad d2|=CAAF G2 ag|fded Ad d2|
f2 fg a2 ag|fefg afde|f2 fg a2 ag|fded Ad d2|
f2 fg a2 ag|fefg af d2|fgaf g2 ag|fded Ad d2|

